dist/svgs/unicons/line/13-plus.svg

<svg xmlns="http://www.w3.org/2000/svg" data-name="Layer 1" viewBox="0 0 24 24"><path d="M18 5h1v1a1 1 0 002 0V5h1a1 1 0 000-2h-1V2a1 1 0 00-2 0v1h-1a1 1 0 000 2zm-7 4a1 1 0 002 0 1 1 0 011-1h1a1 1 0 011 1v1a1 1 0 01-1 1h-.5a1 1 0 000 2h.5a1 1 0 011 1v1a1 1 0 01-1 1h-1a1 1 0 01-1-1 1 1 0 00-2 0 3 3 0 003 3h1a3 3 0 003-3v-1a3 3 0 00-.78-2 3 3 0 00.78-2V9a3 3 0 00-3-3h-1a3 3 0 00-3 3zM7 7v10a1 1 0 002 0V7a1 1 0 00-2 0zm14.6 2a1 1 0 00-.78 1.18 9 9 0 11-7-7 1 1 0 10.4-2A10.8 10.8 0 0012 1a11 11 0 1011 11 10.8 10.8 0 00-.22-2.2A1 1 0 0021.6 9z"/></svg>

<svg xmlns="http://www.w3.org/2000/svg" data-name="Layer 1" viewBox="0 0 24 24"><path d="M18,5h1V6a1,1,0,0,0,2,0V5h1a1,1,0,0,0,0-2H21V2a1,1,0,0,0-2,0V3H18a1,1,0,0,0,0,2ZM11,9a1,1,0,0,0,2,0,1,1,0,0,1,1-1h1a1,1,0,0,1,1,1v1a1,1,0,0,1-1,1h-.5a1,1,0,0,0,0,2H15a1,1,0,0,1,1,1v1a1,1,0,0,1-1,1H14a1,1,0,0,1-1-1,1,1,0,0,0-2,0,3,3,0,0,0,3,3h1a3,3,0,0,0,3-3V14a3,3,0,0,0-.78-2A3,3,0,0,0,18,10V9a3,3,0,0,0-3-3H14A3,3,0,0,0,11,9ZM7,7V17a1,1,0,0,0,2,0V7A1,1,0,0,0,7,7ZM21.6,9a1,1,0,0,0-.78,1.18,9,9,0,1,1-7-7,1,1,0,1,0,.4-2A10.8,10.8,0,0,0,12,1,11,11,0,1,0,23,12a10.8,10.8,0,0,0-.22-2.2A1,1,0,0,0,21.6,9Z"/></svg>
